X:124
T:B124-  The Dragon of Wantley
Q:1/4=120
L:1/4
M:C|
K:Gm
A|BAG3/2F/2|edc3/2B/2|edB3/2A/2|GG2A|\
BAG3/2F/2|edcd/2e/|fdec|dd2d|\
d=ef3/2d/2|ecc3/2 c/2|dfd3/2c/2|df2d|\
d/2e/2fg3/2d/2|ecf3/2e/2|dcBA|GG2|]
